webstudio_example/img/statistics/star.svg

<?xml version="1.0" encoding="UTF-8"?>
<svg enable-background="new 0 0 512 512" version="1.1" viewBox="0 0 512 512" xml:space="preserve" xmlns="http://www.w3.org/2000/svg">
	<g xmlns="http://www.w3.org/2000/svg">
		<path d="m512 197.82-185.93-12.228-70.067-176.02-70.067 176.02-185.93 12.228 142.66 120.93-46.802 183.68 160.14-101.22 160.14 101.22-46.8-183.67 142.66-120.94zm-256 167.9-112.46 71.08 32.827-128.83-100.53-85.085 130.97-8.603 49.2-123.6 49.2 123.6 131.12 8.602-100.69 85.077 32.829 128.84-112.46-71.08z" fill="#fff" style="" data-original="#000000"/>
	</g>
</svg>

<?xml version="1.0"?>
<svg xmlns="http://www.w3.org/2000/svg" xmlns:xlink="http://www.w3.org/1999/xlink" xmlns:svgjs="http://svgjs.com/svgjs" version="1.1" width="512" height="512" x="0" y="0" viewBox="0 0 512 512" style="enable-background:new 0 0 512 512" xml:space="preserve"><g>
<g xmlns="http://www.w3.org/2000/svg">
	<g>
		<path d="M512,197.819l-185.933-12.228L256,9.571l-70.067,176.021L0,197.82l142.658,120.93L95.856,502.429L256,401.214    l160.144,101.215l-46.8-183.671L512,197.819z M256,365.724l-112.464,71.08l32.827-128.831L75.829,222.888l130.971-8.603    L256,90.687l49.2,123.599l131.124,8.602l-100.689,85.077l32.829,128.839L256,365.724z" fill="#ffffff" data-original="#000000" style=""/>
	</g>
</g>
<g xmlns="http://www.w3.org/2000/svg">
</g>
<g xmlns="http://www.w3.org/2000/svg">
</g>
<g xmlns="http://www.w3.org/2000/svg">
</g>
<g xmlns="http://www.w3.org/2000/svg">
</g>
<g xmlns="http://www.w3.org/2000/svg">
</g>
<g xmlns="http://www.w3.org/2000/svg">
</g>
<g xmlns="http://www.w3.org/2000/svg">
</g>
<g xmlns="http://www.w3.org/2000/svg">
</g>
<g xmlns="http://www.w3.org/2000/svg">
</g>
<g xmlns="http://www.w3.org/2000/svg">
</g>
<g xmlns="http://www.w3.org/2000/svg">
</g>
<g xmlns="http://www.w3.org/2000/svg">
</g>
<g xmlns="http://www.w3.org/2000/svg">
</g>
<g xmlns="http://www.w3.org/2000/svg">
</g>
<g xmlns="http://www.w3.org/2000/svg">
</g>
</g></svg>
